src/containers/Contact/twitter.svg

<svg viewBox="0 0 400 400" xmlns="http://www.w3.org/2000/svg"><path d="m156.406 295.493c88.683 0 137.179-73.471 137.179-137.179 0-2.088-.042-4.166-.137-6.233 9.413-6.805 17.596-15.296 24.052-24.964-8.639 3.837-17.936 6.424-27.688 7.59 9.954-5.968 17.596-15.413 21.201-26.67-9.318 5.522-19.632 9.54-30.614 11.702-8.799-9.371-21.328-15.232-35.194-15.232-26.628 0-48.221 21.592-48.221 48.21 0 3.784.424 7.463 1.251 10.993-40.07-2.014-75.602-21.201-99.379-50.373-4.144 7.123-6.53 15.402-6.53 24.232 0 16.728 8.513 31.494 21.456 40.133-7.908-.243-15.339-2.417-21.837-6.031-.011.201-.011.403-.011.614 0 23.353 16.622 42.847 38.681 47.268-4.049 1.102-8.311 1.696-12.71 1.696-3.106 0-6.127-.308-9.063-.87 6.138 19.155 23.936 33.095 45.041 33.487-16.505 12.932-37.292 20.639-59.882 20.639-3.89 0-7.727-.223-11.501-.668 21.339 13.674 46.674 21.656 73.906 21.656" fill="#4591c2"/></svg>

<svg  viewBox="0 0 400 400" xmlns="http://www.w3.org/2000/svg" xmlns:xlink="http://www.w3.org/1999/xlink"> <g id="Page-1" stroke="none" stroke-width="1" fill="none" fill-rule="evenodd"> <g id="Twitter-Icon-Circle"> <g id="Group-3"> <path d="M400,200 C400,310.457 310.457,400 200,400 C89.543,400 0,310.457 0,200 C0,89.543 89.543,0 200,0 C310.457,0 400,89.543 400,200" id="Fill-1" fill="#4591C2"></path> <path d="M156.406,295.493 C245.089,295.493 293.585,222.022 293.585,158.314 C293.585,156.226 293.543,154.148 293.448,152.081 C302.861,145.276 311.044,136.785 317.5,127.117 C308.861,130.954 299.564,133.541 289.812,134.707 C299.766,128.739 307.408,119.294 311.013,108.037 C301.695,113.559 291.381,117.577 280.399,119.739 C271.6,110.368 259.071,104.507 245.205,104.507 C218.577,104.507 196.984,126.099 196.984,152.717 C196.984,156.501 197.408,160.18 198.235,163.71 C158.165,161.696 122.633,142.509 98.856,113.337 C94.712,120.46 92.326,128.739 92.326,137.569 C92.326,154.297 100.839,169.063 113.782,177.702 C105.874,177.459 98.443,175.285 91.945,171.671 C91.934,171.872 91.934,172.074 91.934,172.285 C91.934,195.638 108.556,215.132 130.615,219.553 C126.566,220.655 122.304,221.249 117.905,221.249 C114.799,221.249 111.778,220.941 108.842,220.379 C114.98,239.534 132.778,253.474 153.883,253.866 C137.378,266.798 116.591,274.505 94.001,274.505 C90.111,274.505 86.274,274.282 82.5,273.837 C103.839,287.511 129.174,295.493 156.406,295.493" id="Fill-4" fill="#FFFFFE"></path> </g> </g> </g> </svg>
